packages/opendesign/src/icons/svgs/fill/people.svg

<?xml version="1.0" encoding="UTF-8"?>
<svg width="24px" height="24px" viewBox="0 0 24 24" version="1.1" xmlns="http://www.w3.org/2000/svg" xmlns:xlink="http://www.w3.org/1999/xlink">
    <title>people</title>
    <g id="people" stroke="none" stroke-width="1" fill="none" fill-rule="evenodd">
        <path d="M11.6875,1.5 C14.8286195,1.5 17.375,4.04638049 17.375,7.1875 C17.375,10.3286195 14.8286195,12.875 11.6875,12.875 C11.4094303,12.875 11.1360214,12.8550445 10.8686274,12.8164876 C6.01689238,13.3755207 2.25,17.4978579 2.25,22.5 C2.25,22.9142136 1.91421356,23.25 1.5,23.25 C1.08578644,23.25 0.75,22.9142136 0.75,22.5 C0.75,17.54184 3.95748277,13.3328278 8.4106876,11.834724 C6.95209507,10.8065567 6,9.10821519 6,7.1875 C6,4.04638049 8.54638049,1.5 11.6875,1.5 Z M16.9367809,12.3884183 C20.7680158,14.2622207 23.25,18.1583718 23.25,22.5 C23.25,22.9142136 22.9142136,23.25 22.5,23.25 C22.0857864,23.25 21.75,22.9142136 21.75,22.5 C21.75,18.7367348 19.5991033,15.3603159 16.2777516,13.7358902 C15.9056575,13.5539043 15.7515444,13.1047337 15.9335303,12.7326396 C16.1155162,12.3605455 16.5646868,12.2064324 16.9367809,12.3884183 Z M11.6875,3.125 C9.4438432,3.125 7.625,4.9438432 7.625,7.1875 C7.625,9.4311568 9.4438432,11.25 11.6875,11.25 C13.9311568,11.25 15.75,9.4311568 15.75,7.1875 C15.75,4.9438432 13.9311568,3.125 11.6875,3.125 Z" id="path1" fill="#000000" fill-rule="nonzero"></path>
    </g>
</svg>

<!-- Generated by IcoMoon.io -->
<svg version="1.1" xmlns="http://www.w3.org/2000/svg" width="24" height="24" viewBox="0 0 24 24">
<title>people</title>
<path d="M11.688 1.5c3.141 0 5.688 2.546 5.688 5.688s-2.546 5.688-5.688 5.688c-0.278 0-0.551-0.020-0.819-0.059-4.852 0.559-8.619 4.681-8.619 9.684 0 0.414-0.336 0.75-0.75 0.75s-0.75-0.336-0.75-0.75c0-4.958 3.207-9.167 7.661-10.665-1.459-1.028-2.411-2.727-2.411-4.647 0-3.141 2.546-5.688 5.688-5.688zM16.937 12.388c3.831 1.874 6.313 5.77 6.313 10.112 0 0.414-0.336 0.75-0.75 0.75s-0.75-0.336-0.75-0.75c0-3.763-2.151-7.14-5.472-8.764-0.372-0.182-0.526-0.631-0.344-1.003s0.631-0.526 1.003-0.344zM11.688 3.125c-2.244 0-4.062 1.819-4.062 4.062s1.819 4.062 4.062 4.062c2.244 0 4.062-1.819 4.062-4.062s-1.819-4.062-4.062-4.062z"></path>
</svg>
